svg/emoji_u1f68f.svg

<svg xmlns="http://www.w3.org/2000/svg" xmlns:xlink="http://www.w3.org/1999/xlink" viewBox="0 0 128 128" width="512px" height="512px"><path fill="#78a3ad" d="M60.2 18.44h7.06v109.47H60.2z"/><defs><path id="a" d="M82.41 20.67c0 10.16-8.25 18.41-18.41 18.41s-18.41-8.25-18.41-18.41C45.59 10.5 53.84 2.25 64 2.25s18.41 8.24 18.41 18.42z"/></defs><use xlink:href="#a" overflow="visible" fill="#f79329"/><clipPath id="b"><use xlink:href="#a" overflow="visible"/></clipPath><path clip-path="url(#b)" fill="#fff" d="M41.86 16.26h43.66v10.51H41.86z"/><path fill="#fff" d="M47.03 46.9h33.41v52.54H47.03z"/><path d="M80.44 102.14H47.03c-1.49 0-2.7-1.2-2.7-2.7V46.9c0-1.49 1.21-2.7 2.7-2.7h33.41c1.49 0 2.7 1.2 2.7 2.7v52.54c0 1.5-1.21 2.7-2.7 2.7zm-30.72-5.39h28.02V49.6H49.72v47.15zM44.55 127.91v-10.27c0-2.36 1.82-4.28 4.06-4.28h30.25c2.23 0 4.06 1.92 4.06 4.28v10.27H44.55z" fill="#78a3ad"/><path d="M64 41.24c-11.34 0-20.57-9.23-20.57-20.57C43.43 9.32 52.66.09 64 .09s20.57 9.23 20.57 20.57c0 11.35-9.23 20.58-20.57 20.58zm0-36.83c-8.96 0-16.26 7.29-16.26 16.26 0 8.96 7.29 16.26 16.26 16.26 8.97 0 16.26-7.3 16.26-16.26 0-8.97-7.29-16.26-16.26-16.26z" fill="#f79329"/></svg>

<?xml version="1.0" encoding="utf-8"?>
<!-- Generator: Adobe Illustrator 19.2.1, SVG Export Plug-In . SVG Version: 6.00 Build 0)  -->
<svg version="1.1" id="レイヤー_1" xmlns="http://www.w3.org/2000/svg" xmlns:xlink="http://www.w3.org/1999/xlink" x="0px"
	 y="0px" viewBox="0 0 128 128" style="enable-background:new 0 0 128 128;" xml:space="preserve">
<g>
	<g>
		<g>
			<g>
				<rect x="60.2" y="18.44" style="fill:#78A3AD;" width="7.06" height="109.47"/>
			</g>
			<g>
				<defs>
					<path id="SVGID_1_" d="M82.41,20.67c0,10.16-8.25,18.41-18.41,18.41s-18.41-8.25-18.41-18.41c0-10.17,8.25-18.42,18.41-18.42
						S82.41,10.49,82.41,20.67z"/>
				</defs>
				<use xlink:href="#SVGID_1_"  style="overflow:visible;fill:#F79329;"/>
				<clipPath id="SVGID_2_">
					<use xlink:href="#SVGID_1_"  style="overflow:visible;"/>
				</clipPath>
				<rect x="41.86" y="16.26" style="clip-path:url(#SVGID_2_);fill:#FFFFFF;" width="43.66" height="10.51"/>
			</g>
			<g>
				<rect x="47.03" y="46.9" style="fill:#FFFFFF;" width="33.41" height="52.54"/>
				<path style="fill:#78A3AD;" d="M80.44,102.14H47.03c-1.49,0-2.7-1.2-2.7-2.7V46.9c0-1.49,1.21-2.7,2.7-2.7h33.41
					c1.49,0,2.7,1.2,2.7,2.7v52.54C83.14,100.94,81.93,102.14,80.44,102.14z M49.72,96.75h28.02V49.6H49.72V96.75z"/>
			</g>
		</g>
		<path style="fill:#78A3AD;" d="M44.55,127.91v-10.27c0-2.36,1.82-4.28,4.06-4.28h30.25c2.23,0,4.06,1.92,4.06,4.28v10.27H44.55z"
			/>
	</g>
	<path style="fill:#F79329;" d="M64,41.24c-11.34,0-20.57-9.23-20.57-20.57C43.43,9.32,52.66,0.09,64,0.09
		c11.34,0,20.57,9.23,20.57,20.57C84.57,32.01,75.34,41.24,64,41.24z M64,4.41c-8.96,0-16.26,7.29-16.26,16.26
		c0,8.96,7.29,16.26,16.26,16.26c8.97,0,16.26-7.3,16.26-16.26C80.26,11.7,72.97,4.41,64,4.41z"/>
</g>
</svg>
